!! 00000] TT[WS
!!!OTL: Fandui maimai huenyen
!!!ARE: Asia, China, Shanxi Zouquan
!! Ethnic Group: Han
!! WII, 264 (2)
!!!SCT: J0795
!!!YEM: Copyright 1995, estate of Helmut Schaffrath.
**kern
*ICvox
*Ivox
*M2/4
*k[b-]
*F:
{8cc
8dd
8cc
8dd
=1
8ff
8dd
[4cc
=2
4cc]
8cc
8dd
=3
8cc
8dd
8b-
8a
=4
2g}
=5
{8g
8a
8cc
8a
=6
8cc
8dd
4cc
=7
8e
8d
4c}
=8
{8cc
8a
8g
8a
=9
8c
8d
8f
8g
=10
8e
8d
[4c
=11
4c]
4r}
==
!!!AGN: Xiaodiao. Xuanchuan, Xinminge
!!!ONB: ESAC (Essen Associative Code) Database: CHINA
!!!AMT: simple duple
!!!AIN: vox
!!!EED: Helmut Schaffrath
!!!EEV: 1.0
*-
!!!ONB: Tied note syntax fixed by Craig Sapp, 2004/05/03/
